flaticon/weather/windy.svg

<svg xmlns="http://www.w3.org/2000/svg" width="32" height="32" viewBox="0 0 24 24">
    <path d="M 16.558594 18.082031 C 15.238281 19.074219 13.660156 19.601562 12 19.601562 C 7.808594 19.601562 4.398438 16.191406 4.398438 12 C 4.398438 7.808594 7.808594 4.398438 12 4.398438 C 13.203125 4.398438 14.351562 4.671875 15.417969 5.210938 C 15.617188 5.3125 15.855469 5.230469 15.957031 5.035156 C 16.054688 4.835938 15.976562 4.59375 15.777344 4.496094 C 14.601562 3.902344 13.328125 3.601562 12 3.601562 C 7.367188 3.601562 3.601562 7.367188 3.601562 12 C 3.601562 16.632812 7.367188 20.398438 12 20.398438 C 13.835938 20.398438 15.578125 19.820312 17.039062 18.71875 C 17.21875 18.585938 17.253906 18.335938 17.121094 18.160156 C 16.988281 17.984375 16.738281 17.949219 16.558594 18.082031 Z M 16.558594 18.082031"/>
    <path d="M14.558594 6.132812C13.75 5.777344 12.890625 5.601562 12 5.601562 8.472656 5.601562 5.601562 8.472656 5.601562 12 5.601562 15.527344 8.472656 18.398438 12 18.398438 12.730469 18.398438 13.449219 18.277344 14.132812 18.035156 14.339844 17.960938 14.449219 17.734375 14.375 17.523438 14.304688 17.316406 14.074219 17.207031 13.867188 17.28125 13.269531 17.492188 12.640625 17.601562 12 17.601562 8.910156 17.601562 6.398438 15.089844 6.398438 12 6.398438 8.910156 8.910156 6.398438 12 6.398438 12.777344 6.398438 13.53125 6.554688 14.238281 6.863281 14.4375 6.953125 14.675781 6.859375 14.765625 6.660156 14.851562 6.457031 14.761719 6.21875 14.558594 6.132812zM12 3.199219C12.222656 3.199219 12.398438 3.019531 12.398438 2.800781L12.398438.398438C12.398438.179688 12.222656 0 12 0 11.777344 0 11.601562.179688 11.601562.398438L11.601562 2.800781C11.601562 3.019531 11.777344 3.199219 12 3.199219zM12 20.800781C11.777344 20.800781 11.601562 20.980469 11.601562 21.199219L11.601562 23.601562C11.601562 23.820312 11.777344 24 12 24 12.222656 24 12.398438 23.820312 12.398438 23.601562L12.398438 21.199219C12.398438 20.980469 12.222656 20.800781 12 20.800781zM3.199219 12C3.199219 11.777344 3.019531 11.601562 2.800781 11.601562L.398438 11.601562C.179688 11.601562 0 11.777344 0 12 0 12.222656.179688 12.398438.398438 12.398438L2.800781 12.398438C3.019531 12.398438 3.199219 12.222656 3.199219 12zM5.210938 18.222656L2.917969 20.515625C2.761719 20.671875 2.761719 20.925781 2.917969 21.082031 2.996094 21.160156 3.097656 21.199219 3.199219 21.199219 3.300781 21.199219 3.40625 21.160156 3.484375 21.082031L5.777344 18.789062C5.933594 18.632812 5.933594 18.378906 5.777344 18.222656 5.621094 18.066406 5.367188 18.066406 5.210938 18.222656zM5.210938 5.777344C5.289062 5.855469 5.390625 5.894531 5.496094 5.894531 5.597656 5.894531 5.699219 5.855469 5.777344 5.777344 5.933594 5.621094 5.933594 5.367188 5.777344 5.210938L3.484375 2.917969C3.328125 2.761719 3.074219 2.761719 2.917969 2.917969 2.761719 3.074219 2.761719 3.328125 2.917969 3.484375zM3.898438 15.4375C3.8125 15.234375 3.578125 15.140625 3.375 15.226562L2.269531 15.695312C2.066406 15.78125 1.972656 16.015625 2.058594 16.21875 2.125 16.371094 2.269531 16.464844 2.425781 16.464844 2.480469 16.464844 2.53125 16.453125 2.582031 16.429688L3.6875 15.960938C3.890625 15.875 3.984375 15.640625 3.898438 15.4375zM2.207031 8.476562L3.320312 8.925781C3.371094 8.945312 3.421875 8.953125 3.46875 8.953125 3.628906 8.953125 3.777344 8.859375 3.839844 8.703125 3.921875 8.5 3.824219 8.265625 3.621094 8.183594L2.507812 7.734375C2.300781 7.652344 2.070312 7.75 1.984375 7.953125 1.902344 8.160156 2.003906 8.390625 2.207031 8.476562zM8.039062 3.6875C8.101562 3.839844 8.25 3.929688 8.40625 3.929688 8.457031 3.929688 8.511719 3.921875 8.5625 3.898438 8.765625 3.8125 8.859375 3.578125 8.773438 3.375L8.304688 2.269531C8.21875 2.066406 7.984375 1.972656 7.78125 2.058594 7.578125 2.144531 7.480469 2.378906 7.570312 2.582031zM8.703125 20.160156C8.5 20.078125 8.265625 20.175781 8.183594 20.378906L7.734375 21.492188C7.652344 21.699219 7.75 21.929688 7.953125 22.015625 8.003906 22.035156 8.054688 22.042969 8.105469 22.042969 8.261719 22.042969 8.414062 21.949219 8.476562 21.792969L8.925781 20.679688C9.007812 20.476562 8.910156 20.242188 8.703125 20.160156zM8.703125 20.160156"/>
    <path d="M17.601562 4.398438C19.144531 4.398438 20.398438 5.65625 20.398438 7.199219 20.398438 8.742188 19.144531 10 17.601562 10L10.398438 10C10.179688 10 10 10.179688 10 10.398438 10 10.621094 10.179688 10.800781 10.398438 10.800781L17.601562 10.800781C19.585938 10.800781 21.199219 9.183594 21.199219 7.199219 21.199219 5.214844 19.585938 3.601562 17.601562 3.601562 17.378906 3.601562 17.199219 3.777344 17.199219 4 17.199219 4.222656 17.378906 4.398438 17.601562 4.398438zM20.398438 14.800781L12.398438 14.800781C12.179688 14.800781 12 14.980469 12 15.199219 12 15.421875 12.179688 15.601562 12.398438 15.601562L20.398438 15.601562C21.945312 15.601562 23.199219 16.855469 23.199219 18.398438 23.199219 19.945312 21.945312 21.199219 20.398438 21.199219 20.179688 21.199219 20 21.378906 20 21.601562 20 21.820312 20.179688 22 20.398438 22 22.386719 22 24 20.386719 24 18.398438 24 16.414062 22.386719 14.800781 20.398438 14.800781zM20.398438 14.800781"/>
    <path d="M16 7.601562C16.222656 7.601562 16.398438 7.421875 16.398438 7.199219 16.398438 6.539062 16.9375 6 17.601562 6 18.261719 6 18.800781 6.539062 18.800781 7.199219 18.800781 7.863281 18.261719 8.398438 17.601562 8.398438 17.378906 8.398438 17.199219 8.578125 17.199219 8.800781 17.199219 9.019531 17.378906 9.199219 17.601562 9.199219 18.703125 9.199219 19.601562 8.304688 19.601562 7.199219 19.601562 6.097656 18.703125 5.199219 17.601562 5.199219 16.496094 5.199219 15.601562 6.097656 15.601562 7.199219 15.601562 7.421875 15.777344 7.601562 16 7.601562zM22.398438 18.398438C22.398438 17.296875 21.503906 16.398438 20.398438 16.398438 20.179688 16.398438 20 16.578125 20 16.800781 20 17.019531 20.179688 17.199219 20.398438 17.199219 21.0625 17.199219 21.601562 17.738281 21.601562 18.398438 21.601562 19.0625 21.0625 19.601562 20.398438 19.601562 19.738281 19.601562 19.199219 19.0625 19.199219 18.398438 19.199219 18.179688 19.019531 18 18.800781 18 18.578125 18 18.398438 18.179688 18.398438 18.398438 18.398438 19.503906 19.296875 20.398438 20.398438 20.398438 21.503906 20.398438 22.398438 19.503906 22.398438 18.398438zM18 16.398438L15.601562 16.398438C15.378906 16.398438 15.199219 16.578125 15.199219 16.800781 15.199219 17.019531 15.378906 17.199219 15.601562 17.199219L18 17.199219C18.222656 17.199219 18.398438 17.019531 18.398438 16.800781 18.398438 16.578125 18.222656 16.398438 18 16.398438zM13.199219 8.800781C13.199219 9.019531 13.378906 9.199219 13.601562 9.199219L16 9.199219C16.222656 9.199219 16.398438 9.019531 16.398438 8.800781 16.398438 8.578125 16.222656 8.398438 16 8.398438L13.601562 8.398438C13.378906 8.398438 13.199219 8.578125 13.199219 8.800781zM8.800781 11.601562C8.578125 11.601562 8.398438 11.777344 8.398438 12 8.398438 12.222656 8.578125 12.398438 8.800781 12.398438L21.199219 12.398438C21.421875 12.398438 21.601562 12.222656 21.601562 12 21.601562 11.777344 21.421875 11.601562 21.199219 11.601562zM10 13.601562C10 13.820312 10.179688 14 10.398438 14L23.601562 14C23.820312 14 24 13.820312 24 13.601562 24 13.378906 23.820312 13.199219 23.601562 13.199219L10.398438 13.199219C10.179688 13.199219 10 13.378906 10 13.601562zM10 13.601562"/>
</svg>

<svg xmlns="http://www.w3.org/2000/svg" width="32" height="32" viewBox="0 0 24 24">
    <path d="M16.559 18.082A7.536 7.536 0 0 1 12 19.602c-4.191 0-7.602-3.41-7.602-7.602 0-4.191 3.41-7.602 7.602-7.602 1.203 0 2.352.274 3.418.813.2.101.437.02.539-.176a.402.402 0 0 0-.18-.539A8.31 8.31 0 0 0 12 3.602c-4.633 0-8.398 3.765-8.398 8.398 0 4.633 3.765 8.398 8.398 8.398a8.3 8.3 0 0 0 5.04-1.68.396.396 0 0 0 .081-.558.403.403 0 0 0-.562-.078zm0 0"/>
    <path d="M14.559 6.133A6.407 6.407 0 0 0 5.602 12a6.407 6.407 0 0 0 8.53 6.035.4.4 0 0 0-.265-.754A5.6 5.6 0 0 1 6.398 12a5.606 5.606 0 0 1 7.84-5.137c.2.09.438-.004.528-.203a.401.401 0 0 0-.207-.527zm0 0M12 3.2c.223 0 .398-.18.398-.4V.399a.398.398 0 1 0-.796 0v2.403c0 .219.175.398.398.398zm0 0M12 20.8a.398.398 0 0 0-.398.4v2.402a.398.398 0 1 0 .796 0v-2.403a.398.398 0 0 0-.398-.398zm0 0M3.2 12a.398.398 0 0 0-.4-.398H.399a.398.398 0 1 0 0 .796h2.403A.398.398 0 0 0 3.199 12zm0 0M5.21 18.223l-2.292 2.293a.4.4 0 0 0 .566.566l2.293-2.293a.4.4 0 0 0-.566-.566zm0 0M5.21 5.777a.399.399 0 0 0 .567 0 .4.4 0 0 0 0-.566L3.484 2.918a.4.4 0 0 0-.566.566zm0 0M3.898 15.438a.399.399 0 0 0-.523-.211l-1.105.468a.402.402 0 1 0 .156.77.365.365 0 0 0 .156-.035l1.106-.47a.399.399 0 0 0 .21-.523zm0 0M2.207 8.477l1.113.449c.051.02.102.027.149.027a.4.4 0 0 0 .152-.77l-1.113-.449a.404.404 0 0 0-.524.22.406.406 0 0 0 .223.523zm0 0M8.04 3.688c.062.152.21.242.366.242a.399.399 0 0 0 .367-.555L8.305 2.27a.399.399 0 1 0-.735.312zm0 0M8.703 20.16a.4.4 0 0 0-.52.219l-.449 1.113a.404.404 0 0 0 .22.524c.05.02.1.027.151.027a.4.4 0 0 0 .372-.25l.449-1.113a.399.399 0 0 0-.223-.52zm0 0"/>
    <path d="M17.602 4.398A2.802 2.802 0 0 1 20.398 7.2c0 1.543-1.253 2.801-2.796 2.801h-7.204a.4.4 0 0 0 0 .8h7.204a3.604 3.604 0 0 0 3.597-3.6 3.6 3.6 0 0 0-3.597-3.598.398.398 0 1 0 0 .796zm0 0M20.398 14.8h-8a.4.4 0 0 0 0 .802h8a2.8 2.8 0 1 1 0 5.597.401.401 0 0 0 0 .801A3.603 3.603 0 0 0 24 18.398a3.602 3.602 0 0 0-3.602-3.597zm0 0"/>
    <path d="M16 7.602c.223 0 .398-.18.398-.403a1.202 1.202 0 0 1 2.402 0 1.2 1.2 0 0 1-1.198 1.2.401.401 0 0 0 0 .8c1.101 0 2-.894 2-2 0-1.101-.899-2-2-2-1.106 0-2 .899-2 2 0 .223.175.403.398.403zm0 0M22.398 18.398c0-1.101-.894-2-2-2a.401.401 0 0 0 0 .801c.665 0 1.204.54 1.204 1.2 0 .663-.54 1.203-1.204 1.203-.66 0-1.199-.54-1.199-1.204a.4.4 0 0 0-.8 0 1.999 1.999 0 1 0 4 0zm0 0M18 16.398h-2.398a.401.401 0 0 0 0 .8L18 17.2c.223 0 .398-.18.398-.398a.398.398 0 0 0-.398-.403zm0 0M13.2 8.8c0 .22.179.4.402.4H16c.223 0 .398-.18.398-.4A.398.398 0 0 0 16 8.399h-2.398a.402.402 0 0 0-.403.403zm0 0M8.8 11.602a.398.398 0 1 0 0 .796h12.4a.398.398 0 1 0 0-.796zm0 0M10 13.602a.4.4 0 0 0 .398.398h13.204a.4.4 0 0 0 0-.8H10.398a.401.401 0 0 0-.398.402zm0 0"/>
</svg>
